src/assets/IconWarning.svg

<svg width="260" height="352" viewBox="0 0 260 352" fill="none" xmlns="http://www.w3.org/2000/svg">
<path fill-rule="evenodd" clip-rule="evenodd" d="M237.864 335.99L217.834 345.361C216.705 345.89 215.984 347.023 215.984 348.267C215.984 350.04 217.422 351.481 219.195 351.481H259.5V335.99H237.864Z" fill="#242424"/>
<path fill-rule="evenodd" clip-rule="evenodd" d="M232.695 220.718C225.38 223.082 218.222 224.707 211.292 225.742L237.864 335.989H259.5L232.695 220.718Z" fill="#7AC7DF"/>
<path fill-rule="evenodd" clip-rule="evenodd" d="M112.205 345.361C111.077 345.89 110.356 347.023 110.356 348.267C110.356 350.04 111.793 351.481 113.566 351.481H153.871V335.99H132.237L112.205 345.361Z" fill="#242424"/>
<path fill-rule="evenodd" clip-rule="evenodd" d="M132.237 335.99H153.871L170.713 225.692C161.095 224.264 152.593 222.011 145.562 219.671L132.237 335.99Z" fill="#7AC7DF"/>
<path fill-rule="evenodd" clip-rule="evenodd" d="M132.346 97.2039L150.992 108.225L164.538 131.625L180.497 117.411L190.205 123.975L194.423 123.162L224.224 117.461L221.336 108.225C222.309 108.274 223.244 108.274 224.159 108.262C234.007 108.077 240.581 104.358 244.593 100.861C248.187 97.7334 249.734 94.8026 249.734 94.8026L249.213 93.6451L238.306 69.3618C233.903 59.5475 224.156 53.2427 213.407 53.2427H194.307V61.9241C194.307 64.7563 192.014 67.0467 189.185 67.0467H167.026C164.198 67.0467 161.905 64.7563 161.905 61.9241V53.2427H142.169C131.451 53.2427 121.724 59.5228 117.303 69.2879L135.6 80.522L138.062 93.6451L132.346 97.2039Z" fill="#242424"/>
<path fill-rule="evenodd" clip-rule="evenodd" d="M231.152 139.601H180.497V157.568H154.22L127.465 227.967C127.465 227.967 135.555 232.856 149.144 237.387C156.175 239.727 164.677 241.98 174.295 243.409C186.314 245.182 200.074 245.675 214.874 243.458C221.804 242.424 228.962 240.798 236.277 238.434C243.726 236.02 251.337 232.856 259.036 228.755L231.152 139.601Z" fill="#242424"/>
<path d="M225.043 190.294L144.134 42.6448C131.135 20.9196 99.4459 20.8907 86.429 42.6448L5.52359 190.294C-7.7653 212.493 8.32354 240.605 34.3694 240.605H196.191C222.215 240.605 238.332 212.516 225.043 190.294ZM115.282 213.959C107.883 213.959 101.861 207.981 101.861 200.637C101.861 193.292 107.883 187.314 115.282 187.314C122.68 187.314 128.702 193.292 128.702 200.637C128.702 207.981 122.68 213.959 115.282 213.959ZM128.702 160.669C128.702 168.013 122.68 173.992 115.282 173.992C107.883 173.992 101.861 168.013 101.861 160.669V94.0556C101.861 86.7113 107.883 80.733 115.282 80.733C122.68 80.733 128.702 86.7113 128.702 94.0556V160.669Z" fill="url(#paint0_linear)"/>
<path fill-rule="evenodd" clip-rule="evenodd" d="M238.306 69.3617L249.213 93.6451C259.903 84.1017 252.24 66.862 240.7 61.4931C235.786 59.2026 229.293 59.2026 226.266 54.708C222.403 48.9697 225.471 42.0738 218.813 37.6407C215.948 35.7444 212.574 34.7962 209.315 33.6756C200.76 30.7695 198.724 26.6812 196.121 18.5293C194.818 14.441 191.908 6.45168 186.05 3.53817C186.048 3.54187 186.046 3.54556 186.044 3.55049C182.811 1.54822 179.015 0.480591 175.241 0.480591C165.589 0.480591 152 4.61688 155.815 20.9675C155.815 20.9675 168.15 20.9798 176.226 11.2271C176.226 11.2271 177.459 16.2758 181.436 19.145C181.497 19.0958 181.564 19.0711 181.627 19.0342C182.472 18.5416 183.442 18.2338 184.493 18.2338C185.036 18.2338 185.552 18.3446 186.05 18.4801C188.442 19.1573 190.205 21.3369 190.205 23.9475C190.205 26.5581 188.442 28.7377 186.05 29.4273V53.2303L186.027 53.2426H213.407C224.156 53.2426 233.903 59.5474 238.306 69.3617Z" fill="#2C2C4E"/>
<path fill-rule="evenodd" clip-rule="evenodd" d="M241.275 139.601C248.456 139.601 253.644 132.742 251.682 125.834L244.593 100.861C240.581 104.358 234.008 108.077 224.159 108.262L227.23 116.882L224.224 117.46L194.423 123.162L190.205 123.975L180.497 117.411L170.846 122.792V139.601H241.275Z" fill="#F5C5B6"/>
<path fill-rule="evenodd" clip-rule="evenodd" d="M162.817 40.0913L169.585 38.3181V53.2427H161.905V61.9242C161.905 67.5923 174.639 82.3692 177.467 82.3692C180.296 82.3692 194.307 68.8237 194.307 61.9242V53.2427H186.027L186.05 53.2304V29.4274C188.442 28.7378 190.205 26.5582 190.205 23.9476C190.205 21.337 188.442 19.1574 186.05 18.4802C185.552 18.3447 185.036 18.2339 184.493 18.2339C183.442 18.2339 182.472 18.5417 181.627 19.0343C181.564 19.0712 181.497 19.0959 181.436 19.1451C177.459 16.2759 176.226 11.2272 176.226 11.2272C168.149 20.9799 155.814 20.9676 155.814 20.9676V34.5131C155.814 38.195 159.235 40.9164 162.817 40.0913Z" fill="#F5C5B6"/>
<mask id="mask0" mask-type="alpha" maskUnits="userSpaceOnUse" x="155" y="11" width="40" height="72">
<path fill-rule="evenodd" clip-rule="evenodd" d="M162.817 40.0913L169.585 38.3181V53.2427H161.905V61.9242C161.905 67.5923 174.639 82.3692 177.467 82.3692C180.296 82.3692 194.307 68.8237 194.307 61.9242V53.2427H186.027L186.05 53.2304V29.4274C188.442 28.7378 190.205 26.5582 190.205 23.9476C190.205 21.337 188.442 19.1574 186.05 18.4802C185.552 18.3447 185.036 18.2339 184.493 18.2339C183.442 18.2339 182.472 18.5417 181.627 19.0343C181.564 19.0712 181.497 19.0959 181.436 19.1451C177.459 16.2759 176.226 11.2272 176.226 11.2272C168.149 20.9799 155.814 20.9676 155.814 20.9676V34.5131C155.814 38.195 159.235 40.9164 162.817 40.0913Z" fill="#F5C5B6"/>
</mask>
<g mask="url(#mask0)">
<rect x="160.844" y="60.8196" width="35.7108" height="23.3967" fill="white"/>
</g>
<defs>
<linearGradient id="paint0_linear" x1="164.548" y1="26.3401" x2="8.41408" y2="261.584" gradientUnits="userSpaceOnUse">
<stop stop-color="#FFE4CB"/>
<stop offset="1" stop-color="#FFA3A3"/>
</linearGradient>
</defs>
</svg>

<svg width="260" height="352" fill="none" xmlns="http://www.w3.org/2000/svg"><path fill-rule="evenodd" clip-rule="evenodd" d="M237.864 335.99l-20.03 9.371a3.21 3.21 0 001.361 6.12H259.5V335.99h-21.636z" fill="#242424"/><path fill-rule="evenodd" clip-rule="evenodd" d="M232.695 220.718a133.761 133.761 0 01-21.403 5.024l26.572 110.247H259.5l-26.805-115.271z" fill="#7AC7DF"/><path fill-rule="evenodd" clip-rule="evenodd" d="M112.205 345.361a3.211 3.211 0 001.361 6.12h40.305V335.99h-21.634l-20.032 9.371z" fill="#242424"/><path fill-rule="evenodd" clip-rule="evenodd" d="M132.237 335.99h21.634l16.842-110.298a149.316 149.316 0 01-25.151-6.021L132.237 335.99z" fill="#7AC7DF"/><path fill-rule="evenodd" clip-rule="evenodd" d="M132.346 97.204l18.646 11.021 13.546 23.4 15.959-14.214 9.708 6.564 4.218-.813 29.801-5.701-2.888-9.236a44.11 44.11 0 002.823.037c9.848-.185 16.422-3.904 20.434-7.401 3.594-3.128 5.141-6.058 5.141-6.058l-.521-1.158-10.907-24.283a27.284 27.284 0 00-24.899-16.12h-19.1v8.682a5.12 5.12 0 01-5.122 5.123h-22.159a5.12 5.12 0 01-5.121-5.123v-8.681h-19.736a27.302 27.302 0 00-24.866 16.045L135.6 80.522l2.462 13.123-5.716 3.559zM231.152 139.601h-50.655v17.967H154.22l-26.755 70.399s8.09 4.889 21.679 9.42a149.407 149.407 0 0025.151 6.022c12.019 1.773 25.779 2.266 40.579.049a133.654 133.654 0 0021.403-5.024 140.337 140.337 0 0022.759-9.679l-27.884-89.154z" fill="#242424"/><path d="M225.043 190.294l-80.909-147.65c-12.999-21.724-44.688-21.753-57.705 0L5.524 190.295c-13.29 22.199 2.8 50.311 28.845 50.311h161.822c26.024 0 42.141-28.089 28.852-50.311zm-109.761 23.665c-7.399 0-13.421-5.978-13.421-13.322 0-7.345 6.022-13.323 13.421-13.323 7.398 0 13.42 5.978 13.42 13.323 0 7.344-6.022 13.322-13.42 13.322zm13.42-53.29c0 7.344-6.022 13.323-13.42 13.323-7.399 0-13.421-5.979-13.421-13.323V94.056c0-7.345 6.022-13.323 13.421-13.323 7.398 0 13.42 5.978 13.42 13.323v66.613z" fill="url(#paint0_linear)"/><path fill-rule="evenodd" clip-rule="evenodd" d="M238.306 69.362l10.907 24.283c10.69-9.543 3.027-26.783-8.513-32.152-4.914-2.29-11.407-2.29-14.434-6.785-3.863-5.738-.795-12.634-7.453-17.067-2.865-1.897-6.239-2.845-9.498-3.965-8.555-2.907-10.591-6.995-13.194-15.147-1.303-4.088-4.213-12.077-10.071-14.99l-.006.011A20.661 20.661 0 00175.241.48c-9.652 0-23.241 4.137-19.426 20.488 0 0 12.335.012 20.411-9.74 0 0 1.233 5.048 5.21 7.917.061-.05.128-.074.191-.11.845-.493 1.815-.801 2.866-.801.543 0 1.059.11 1.557.246 2.392.677 4.155 2.857 4.155 5.468 0 2.61-1.763 4.79-4.155 5.48V53.23l-.023.013h27.38a27.284 27.284 0 0124.899 16.119z" fill="#2C2C4E"/><path fill-rule="evenodd" clip-rule="evenodd" d="M241.275 139.601c7.181 0 12.369-6.859 10.407-13.767l-7.089-24.973c-4.012 3.497-10.585 7.216-20.434 7.401l3.071 8.62-3.006.578-29.801 5.702-4.218.813-9.708-6.564-9.651 5.381v16.809h70.429zM162.817 40.091l6.768-1.773v14.925h-7.68v8.681c0 5.668 12.734 20.445 15.562 20.445 2.829 0 16.84-13.545 16.84-20.445v-8.681h-8.28l.023-.013V29.427c2.392-.69 4.155-2.869 4.155-5.48 0-2.61-1.763-4.79-4.155-5.467-.498-.135-1.014-.246-1.557-.246-1.051 0-2.021.308-2.866.8-.063.037-.13.062-.191.111-3.977-2.87-5.21-7.918-5.21-7.918-8.077 9.753-20.412 9.74-20.412 9.74v13.546c0 3.682 3.421 6.403 7.003 5.578z" fill="#F5C5B6"/><mask id="a" maskUnits="userSpaceOnUse" x="155" y="11" width="40" height="72"><path fill-rule="evenodd" clip-rule="evenodd" d="M162.817 40.091l6.768-1.773v14.925h-7.68v8.681c0 5.668 12.734 20.445 15.562 20.445 2.829 0 16.84-13.545 16.84-20.445v-8.681h-8.28l.023-.013V29.427c2.392-.69 4.155-2.869 4.155-5.48 0-2.61-1.763-4.79-4.155-5.467-.498-.135-1.014-.246-1.557-.246-1.051 0-2.021.308-2.866.8-.063.037-.13.062-.191.111-3.977-2.87-5.21-7.918-5.21-7.918-8.077 9.753-20.412 9.74-20.412 9.74v13.546c0 3.682 3.421 6.403 7.003 5.578z" fill="#F5C5B6"/></mask><g mask="url(#a)"><path fill="#fff" d="M160.844 60.82h35.711v23.397h-35.711z"/></g><defs><linearGradient id="paint0_linear" x1="164.548" y1="26.34" x2="8.414" y2="261.584" gradientUnits="userSpaceOnUse"><stop stop-color="#FFE4CB"/><stop offset="1" stop-color="#FFA3A3"/></linearGradient></defs></svg>
